2c6
albertroad.htmlalbertroad.htmlalbertroad.htmlalbertroad.htmlalbertroad.htmlalbertroad.htmlalbertroad.htmlalbertroad.html


albertroad.html

T:Star of Munster
M:4/4
L:1/8
R:reel
Z:Devin McCabe
K:ADor
ed |: c2Ac BAGB | AGEF GED2 | EA A/2A/2A ABcd | eaaf gfed |
!c2Ac BAGB | AGEF GEDF | EA A/2A/2A ABce |1 dBGB A2ed :|2 dBGB A2eg|:
!~a3b ageg | agbg agef | g2gf gd d/2d/2d | gabg aged |
!eaab ageg | agbg agef | g2ge ~a3ag | b2ba gfed :|

%  ABC2Win Version 2.1 1/20/2001



albertroad.htmlalbertroad.htmlalbertroad.htmlalbertroad.htmlalbertroad.htmlalbertroad.html
0

